!!!OTL: GANZ VERGNUEGT UND EINSAM
!!!ARE: Europa, Mitteleuropa, Deutschland, Thueringen
!!!SCT: E0522E
!!!YEM: Copyright 1995, estate of Helmut Schaffrath.
**kern
*ICvox
*Ivox
*M3/4
*k[b-]
*F:
{8f
8a
=1
8cc
8cc
8cc
8cc
8.dd
16cc
=2
4cc
4a}
{8.dd
16cc
=3
8cc
8b-
8b-
8dd
8cc
8b-
=4
4b-
4a}
{8cc
8cc
=5
8b-
8b-
4g
8dd
8dd
=6
8cc
8cc
4a}
{8cc
8cc
=7
8b-
8b-
4g
8dd
8dd
=8
8cc
8cc
4a}
{8f
8a
=9
8cc
8cc
8cc
8cc
8.dd
16cc
=10
4cc
4a}
{8.dd
16cc
=11
8cc
8b-
8b-
8dd
8cc
8b-
=12
4b-
4a}
==
!!!AGN: Liebes - Lied
!!!ONB: ESAC (Essen Associative Code) Database: ERK1
!!!AMT: simple triple
!!!AIN: vox
!!!EED: Helmut Schaffrath
!!!EEV: 1.0
*-
